static/images/header-background.svg

<svg width="1258" height="314" fill="none" xmlns="http://www.w3.org/2000/svg"><g filter="url(#a)" fill="#F4FAF4" fill-opacity=".4"><path d="M1600.76 435.803c.01-8.265-5.66-16.194-15.79-22.038l-289.02-166.852c-21.04-12.149-55.16-12.149-76.21 0L680.189 558.396c-21.045 12.15-55.167 12.15-76.212 0l-64.263-37.099c-21.045-12.149-21.045-31.848 0-43.997l270.697-156.274c10.09-5.824 15.766-13.721 15.784-21.958l.22-98.485c.019-8.265-5.66-16.194-15.784-22.039L521.611 11.693c-21.045-12.15-55.167-12.15-76.212 0l-1317.494 760.59c-10.089 5.824-15.766 13.721-15.784 21.958l-.22 98.485c-.019 8.265 5.66 16.194 15.784 22.038L674.481 1807.73c21.046 12.15 55.167 12.15 76.212 0l686.337-396.22c10.09-5.83 15.77-13.72 15.78-21.96l.22-98.49c.02-8.26-5.66-16.19-15.78-22.03L931.769 977.211c-21.046-12.149-21.046-31.848 0-43.997l652.981-376.967c10.09-5.825 15.77-13.722 15.79-21.959l.22-98.485Z"/><path fill-rule="evenodd" clip-rule="evenodd" d="M1219.74 246.913c21.05-12.149 55.17-12.149 76.21 0l266.73 153.982c21.04 12.149 21.04 31.847 0 43.997L824.288 871.165c-21.045 12.15-21.045 31.848 0 43.997l590.672 340.998c21.04 12.15 21.04 31.84 0 43.99l-663.989 383.32c-21.046 12.15-55.167 12.15-76.212 0L45.984 1320.48l-128.978-74.46-147.973-85.42-65.989-38.1-247.955-143.143-28.995-16.739-275.838-159.241c-21.046-12.15-21.046-31.848 0-43.998L445.399 11.693c21.046-12.15 55.167-12.15 76.212 0l266.727 153.982c21.045 12.149 21.046 31.847 0 43.997L191.059 554.481c-21.045 12.149-21.045 31.847 0 43.997l22.771 13.145c21.045 12.15 55.166 12.15 76.212 0l164.962-95.232c21.045-12.15 55.166-12.15 76.211 0l72.762 42.005c21.045 12.15 55.167 12.149 76.212 0l539.551-311.483Z"/></g><g filter="url(#b)" fill-opacity=".4"><path d="M1600.76 317.012c.01-8.265-5.66-16.194-15.79-22.038l-289.02-166.852c-21.04-12.149-55.16-12.149-76.21 0L680.189 439.605c-21.045 12.15-55.167 12.15-76.212 0l-64.263-37.099c-21.045-12.15-21.045-31.848 0-43.997l270.697-156.274c10.09-5.824 15.766-13.721 15.784-21.958l.22-98.485c.019-8.265-5.66-16.194-15.784-22.039l-289.02-166.851c-21.045-12.149-55.167-12.149-76.212 0L-872.095 653.491c-10.089 5.825-15.766 13.722-15.784 21.959l-.22 98.485c-.019 8.265 5.66 16.194 15.784 22.038L674.481 1688.94c21.046 12.15 55.167 12.15 76.212 0l686.337-396.22c10.09-5.83 15.77-13.72 15.78-21.96l.22-98.49c.02-8.26-5.66-16.19-15.78-22.04L931.769 858.42c-21.046-12.149-21.046-31.848 0-43.997l652.981-376.967c10.09-5.825 15.77-13.722 15.79-21.959l.22-98.485Z" fill="#B2F2E1"/><path fill-rule="evenodd" clip-rule="evenodd" d="M1238.79 117.123c10.53-6.075 27.59-6.075 38.11 0l304.83 175.98c10.52 6.075 10.52 15.924 0 21.999L805.235 763.373c-10.523 6.075-10.523 15.924 0 21.999l628.775 362.988c10.52 6.08 10.52 15.93 0 22l-702.092 405.32c-10.523 6.08-27.584 6.08-38.106 0L45.984 1201.69l-128.978-74.46-147.973-85.42-65.989-38.1-247.955-143.144-28.995-16.739-294.891-170.241c-10.523-6.074-10.523-15.924 0-21.998L464.452-118.097c10.523-6.075 27.583-6.075 38.106 0l304.833 175.98c10.523 6.075 10.523 15.924 0 21.998L172.006 446.69c-10.522 6.075-10.522 15.924 0 21.999l60.877 35.144c10.522 6.074 27.583 6.074 38.106 0L474.057 386.6c10.522-6.074 27.583-6.074 38.106 0l110.867 64.004c10.523 6.075 27.583 6.075 38.106 0l577.654-333.481Z" fill="#7BE7CE"/></g><defs><filter id="a" x="-1022.1" y="-250.209" width="3492.75" height="2201.05" filterUnits="userSpaceOnUse" color-interpolation-filters="sRGB"><feFlood flood-opacity="0" result="BackgroundImageFix"/><feGaussianBlur in="BackgroundImageFix" stdDeviation="67"/><feComposite in2="SourceAlpha" operator="in" result="effect1_backgroundBlur_470_83"/><feBlend in="SourceGraphic" in2="effect1_backgroundBlur_470_83" result="shape"/></filter><filter id="b" x="-1022.1" y="-369" width="3492.75" height="2201.05" filterUnits="userSpaceOnUse" color-interpolation-filters="sRGB"><feFlood flood-opacity="0" result="BackgroundImageFix"/><feGaussianBlur in="BackgroundImageFix" stdDeviation="67"/><feComposite in2="SourceAlpha" operator="in" result="effect1_backgroundBlur_470_83"/><feBlend in="SourceGraphic" in2="effect1_backgroundBlur_470_83" result="shape"/></filter></defs></svg>

<svg width="1258" height="314" viewBox="0 0 1258 314" fill="none" xmlns="http://www.w3.org/2000/svg">
<g filter="url(#filter0_b_470_83)">
<path d="M1600.76 435.803C1600.77 427.538 1595.1 419.609 1584.97 413.765L1295.95 246.913C1274.91 234.764 1240.79 234.764 1219.74 246.913L680.189 558.396C659.144 570.546 625.022 570.546 603.977 558.396L539.714 521.297C518.669 509.148 518.669 489.449 539.714 477.3L810.411 321.026C820.501 315.202 826.177 307.305 826.195 299.068L826.415 200.583C826.434 192.318 820.755 184.389 810.631 178.544L521.611 11.693C500.566 -0.456472 466.444 -0.456454 445.399 11.693L-872.095 772.283C-882.184 778.107 -887.861 786.004 -887.879 794.241L-888.099 892.726C-888.118 900.991 -882.439 908.92 -872.315 914.764L674.481 1807.73C695.527 1819.88 729.648 1819.88 750.693 1807.73L1437.03 1411.51C1447.12 1405.68 1452.8 1397.79 1452.81 1389.55L1453.03 1291.06C1453.05 1282.8 1447.37 1274.87 1437.25 1269.03L931.769 977.211C910.723 965.062 910.723 945.363 931.769 933.214L1584.75 556.247C1594.84 550.422 1600.52 542.525 1600.54 534.288L1600.76 435.803Z" fill="#F4FAF4" fill-opacity="0.4"/>
<path fill-rule="evenodd" clip-rule="evenodd" d="M1219.74 246.913C1240.79 234.764 1274.91 234.764 1295.95 246.913L1562.68 400.895C1583.72 413.044 1583.72 432.742 1562.68 444.892L824.288 871.165C803.243 883.315 803.243 903.013 824.288 915.162L1414.96 1256.16C1436 1268.31 1436 1288 1414.96 1300.15L750.971 1683.47C729.925 1695.62 695.804 1695.62 674.759 1683.47L45.9835 1320.48L-82.9936 1246.02L-230.967 1160.6L-296.956 1122.5L-544.911 979.357L-573.906 962.618L-849.744 803.377C-870.79 791.227 -870.79 771.529 -849.744 759.379L445.399 11.693C466.445 -0.456477 500.566 -0.456495 521.611 11.693L788.338 165.675C809.383 177.824 809.384 197.522 788.338 209.672L191.059 554.481C170.014 566.63 170.014 586.328 191.059 598.478L213.83 611.623C234.875 623.773 268.996 623.773 290.042 611.623L455.004 516.391C476.049 504.241 510.17 504.241 531.215 516.391L603.977 558.396C625.022 570.546 659.144 570.545 680.189 558.396L1219.74 246.913Z" fill="#F4FAF4" fill-opacity="0.4"/>
</g>
<g filter="url(#filter1_b_470_83)">
<path d="M1600.76 317.012C1600.77 308.747 1595.1 300.818 1584.97 294.974L1295.95 128.122C1274.91 115.973 1240.79 115.973 1219.74 128.122L680.189 439.605C659.144 451.755 625.022 451.755 603.977 439.605L539.714 402.506C518.669 390.356 518.669 370.658 539.714 358.509L810.411 202.235C820.501 196.411 826.177 188.514 826.195 180.277L826.415 81.7921C826.434 73.5271 820.755 65.5976 810.631 59.7534L521.611 -107.098C500.566 -119.247 466.444 -119.247 445.399 -107.098L-872.095 653.491C-882.184 659.316 -887.861 667.213 -887.879 675.45L-888.099 773.935C-888.118 782.2 -882.439 790.129 -872.315 795.973L674.481 1688.94C695.527 1701.09 729.648 1701.09 750.693 1688.94L1437.03 1292.72C1447.12 1286.89 1452.8 1279 1452.81 1270.76L1453.03 1172.27C1453.05 1164.01 1447.37 1156.08 1437.25 1150.23L931.769 858.42C910.723 846.271 910.723 826.572 931.769 814.423L1584.75 437.456C1594.84 431.631 1600.52 423.734 1600.54 415.497L1600.76 317.012Z" fill="#B2F2E1" fill-opacity="0.4"/>
<path fill-rule="evenodd" clip-rule="evenodd" d="M1238.79 117.123C1249.32 111.048 1266.38 111.048 1276.9 117.123L1581.73 293.103C1592.25 299.178 1592.25 309.027 1581.73 315.102L805.235 763.373C794.712 769.448 794.712 779.297 805.235 785.372L1434.01 1148.36C1444.53 1154.44 1444.53 1164.29 1434.01 1170.36L731.918 1575.68C721.395 1581.76 704.334 1581.76 693.812 1575.68L45.9835 1201.69L-82.9936 1127.23L-230.967 1041.81L-296.956 1003.71L-544.911 860.566L-573.906 843.827L-868.797 673.586C-879.32 667.512 -879.32 657.662 -868.797 651.588L464.452 -118.097C474.975 -124.172 492.035 -124.172 502.558 -118.097L807.391 57.8828C817.914 63.9575 817.914 73.8066 807.391 79.8814L172.006 446.689C161.484 452.764 161.484 462.613 172.006 468.688L232.883 503.832C243.405 509.906 260.466 509.906 270.989 503.832L474.057 386.6C484.579 380.526 501.64 380.526 512.163 386.6L623.03 450.604C633.553 456.679 650.613 456.679 661.136 450.604L1238.79 117.123Z" fill="#7BE7CE" fill-opacity="0.4"/>
</g>
<defs>
<filter id="filter0_b_470_83" x="-1022.1" y="-250.209" width="3492.75" height="2201.05" filterUnits="userSpaceOnUse" color-interpolation-filters="sRGB">
<feFlood flood-opacity="0" result="BackgroundImageFix"/>
<feGaussianBlur in="BackgroundImageFix" stdDeviation="67"/>
<feComposite in2="SourceAlpha" operator="in" result="effect1_backgroundBlur_470_83"/>
<feBlend mode="normal" in="SourceGraphic" in2="effect1_backgroundBlur_470_83" result="shape"/>
</filter>
<filter id="filter1_b_470_83" x="-1022.1" y="-369" width="3492.75" height="2201.05" filterUnits="userSpaceOnUse" color-interpolation-filters="sRGB">
<feFlood flood-opacity="0" result="BackgroundImageFix"/>
<feGaussianBlur in="BackgroundImageFix" stdDeviation="67"/>
<feComposite in2="SourceAlpha" operator="in" result="effect1_backgroundBlur_470_83"/>
<feBlend mode="normal" in="SourceGraphic" in2="effect1_backgroundBlur_470_83" result="shape"/>
</filter>
</defs>
</svg>
